svg/set/LCC/WM.svg

<?xml version="1.0" encoding="UTF-8" standalone="no"?>
<svg
   width="1000"
   height="1000"
   viewBox="0 0 1000 1000"
   version="1.1"
   xml:space="preserve"
   style="clip-rule:evenodd;fill-rule:evenodd;stroke-linejoin:round;stroke-miterlimit:2"
   id="svg4"
   xmlns="http://www.w3.org/2000/svg"
   xmlns:svg="http://www.w3.org/2000/svg"
   xmlns:serif="http://www.serif.com/"><defs
   id="defs4" />
    <g
   transform="translate(-4275.9955)"
   id="g4">
        <g
   id="WM"
   transform="translate(-0.444444)">
            <rect
   x="4276.4399"
   y="0"
   width="1000"
   height="1000"
   style="fill:none"
   id="rect1" />
            <g
   id="Ebene-1"
   serif:id="Ebene 1"
   transform="matrix(1.39361,0,0,1.39361,4280.44,1.5011e-4)">
                <g
   transform="translate(356.456,239.41)"
   id="g1">
                    <path
   d="m 0,237.513 c -64.682,0 -117.195,-53.213 -117.195,-118.756 C -117.195,53.213 -64.682,0 0,0 64.681,0 117.195,53.213 117.195,118.757 117.195,184.3 64.681,237.513 0,237.513 M 0,-21.158 c -76.206,0 -138.075,62.694 -138.075,139.915 0,77.22 61.869,139.914 138.075,139.914 76.205,0 138.075,-62.694 138.075,-139.914 C 138.075,41.536 76.205,-21.158 0,-21.158"
   id="path1" />
                </g>
                <g
   transform="translate(356.456,296.995)"
   id="g2">
                    <path
   d="m 0,122.343 c -33.318,0 -60.367,-27.41 -60.367,-61.171 0,-33.762 27.049,-61.171 60.367,-61.171 33.317,0 60.367,27.409 60.367,61.171 0,33.761 -27.05,61.171 -60.367,61.171 M 0,-20.66 c -44.57,0 -80.756,36.668 -80.756,81.832 0,45.163 36.186,81.831 80.756,81.831 44.57,0 80.755,-36.668 80.755,-81.831 C 80.755,16.008 44.57,-20.66 0,-20.66"
   id="path2" />
                </g>
                <g
   transform="matrix(1.00252,0,0,0.996612,637.77,184.74)"
   id="g3">
                    <path
   d="m 0,348.754 -101.705,-74.379 c 0,0 5.37,-7.655 8.637,-18.139 L 49.024,186.992 c 0,0 1.373,87.208 -49.024,161.762 m -125.058,51.763 -42.582,-55.922 c 22.46,-14.462 41.534,-32.658 56.938,-54.901 l 55.564,41.247 c 0,0 -26.886,40.381 -69.92,69.576 m -145.791,107.958 69.173,-142.851 c 10.686,-3.251 18.613,-8.717 18.613,-8.717 l 75.936,101.809 c -75.989,50.143 -163.722,49.759 -163.722,49.759 M -348.517,349.703 C -396.98,330.657 -435.615,291.569 -454.493,242.5 l -138.702,-67.868 138.38,-67.71 c 18.811,-49.604 57.778,-89.114 106.713,-108.209 l 66.278,-135.452 66.126,135.143 c 49.437,19.025 88.801,58.851 107.657,108.906 l 137.588,67.322 -137.907,67.479 c -18.926,49.521 -57.958,88.925 -106.925,107.904 l -66.539,135.988 z m -107.077,109.342 75.179,-102.138 c 0,0 7.848,5.484 18.428,8.745 l 68.82,142.822 c 0,0 -87.195,0.876 -162.427,-49.429 m -55.664,-123.622 55.497,-43.135 c 14.684,22.315 33.069,41.207 55.464,56.39 l -40.693,55.97 c 0,0 -40.646,-26.483 -70.268,-69.225 m -52.327,14.048 c -49.941,-74.285 -48.898,-161.895 -48.898,-161.895 l 141.614,68.832 c 3.237,10.446 8.681,18.195 8.681,18.195 z m 0,-350.283 100.858,76.016 c 0,0 -5.444,8.041 -8.681,18.637 l -141.067,69.344 c 0,0 -1.051,-88.657 48.89,-163.997 m 123.535,-56.103 42.355,56.094 c -22.517,14.371 -41.665,32.49 -57.159,54.67 l -55.396,-41.47 c 0,0 27.049,-40.273 70.2,-69.294 m 146.607,-101.97 -67.434,141.786 c -10.447,3.237 -18.196,9.235 -18.196,9.235 l -73.595,-102.101 c 74.285,-49.941 159.225,-48.92 159.225,-48.92 m 183.661,48.92 -74.233,102.101 c 0,0 -7.547,-5.339 -17.994,-8.576 l -67.7,-142.447 c 0,0 85.641,-1.019 159.927,48.922 m 55.171,125.056 -55.565,43.046 c -14.649,-22.338 -33.003,-41.26 -55.373,-56.478 l 40.782,-55.905 c 0,0 40.604,26.548 70.156,69.337 M 0.393,-2.329 C 50.334,73.827 48.876,163.443 48.876,163.443 L -91.444,93.644 c -3.237,-10.709 -9.121,-19.254 -9.121,-19.254 z m 7.252,-34.146 -46.502,34.228 c 0,0 -17.236,-28.471 -66.994,-67.589 l 32.859,-47.567 c 0,0 -86.498,-64.606 -208.832,-66.437 -122.303,-1.83 -208.851,64.622 -208.851,67.397 l 33.994,46.335 c 0,0 -46.445,33.062 -67.306,67.699 l -46.445,-34.637 c 0,0 -67.525,77.995 -67.525,211.678 0,133.683 67.265,210.052 67.265,210.052 l 46.023,-34.391 c 0,0 21.943,36.896 68.122,69.023 l -33.978,45.87 c 0,0 74.352,69.238 208.701,68.492 132.606,-0.736 207.368,-67.669 209.502,-67.794 l -34.021,-47.332 c 0,0 38.762,-27.158 67.4,-67.4 l 45.921,33.823 c 0,0 66.676,-77.628 67.271,-210.343 C 74.838,43.06 7.645,-34.454 7.645,-36.475"
   style="fill-rule:nonzero"
   id="path3" />
                </g>
            </g>
        </g>
    </g>
</svg>

<?xml version="1.0" encoding="UTF-8" standalone="no"?>
<!DOCTYPE svg PUBLIC "-//W3C//DTD SVG 1.1//EN" "http://www.w3.org/Graphics/SVG/1.1/DTD/svg11.dtd">
<svg width="100%" height="100%" viewBox="0 0 1000 1000" version="1.1" xmlns="http://www.w3.org/2000/svg" xmlns:xlink="http://www.w3.org/1999/xlink" xml:space="preserve" xmlns:serif="http://www.serif.com/" style="fill-rule:evenodd;clip-rule:evenodd;stroke-linejoin:round;stroke-miterlimit:2;">
    <g transform="matrix(1,0,0,1,-4276,0)">
        <g id="WM" transform="matrix(1,0,0,1,-0.444444,0)">
            <rect x="4276.44" y="0" width="1000" height="1000" style="fill:none;"/>
            <g id="Ebene-1" serif:id="Ebene 1" transform="matrix(1.39361,0,0,1.39361,4280.44,0.00015011)">
                <g transform="matrix(1,0,0,1,356.456,239.41)">
                    <path d="M0,237.513C-64.682,237.513 -117.195,184.3 -117.195,118.757C-117.195,53.213 -64.682,0 0,0C64.681,0 117.195,53.213 117.195,118.757C117.195,184.3 64.681,237.513 0,237.513M0,-21.158C-76.206,-21.158 -138.075,41.536 -138.075,118.757C-138.075,195.977 -76.206,258.671 0,258.671C76.205,258.671 138.075,195.977 138.075,118.757C138.075,41.536 76.205,-21.158 0,-21.158"/>
                </g>
                <g transform="matrix(1,0,0,1,356.456,296.995)">
                    <path d="M0,122.343C-33.318,122.343 -60.367,94.933 -60.367,61.172C-60.367,27.41 -33.318,0.001 0,0.001C33.317,0.001 60.367,27.41 60.367,61.172C60.367,94.933 33.317,122.343 0,122.343M0,-20.66C-44.57,-20.66 -80.756,16.008 -80.756,61.172C-80.756,106.335 -44.57,143.003 0,143.003C44.57,143.003 80.755,106.335 80.755,61.172C80.755,16.008 44.57,-20.66 0,-20.66"/>
                </g>
                <g transform="matrix(1.00252,0,0,0.996612,637.77,184.74)">
                    <path d="M0,348.754L-101.705,274.375C-101.705,274.375 -96.335,266.72 -93.068,256.236L49.024,186.992C49.024,186.992 50.397,274.2 0,348.754M-125.058,400.517L-167.64,344.595C-145.18,330.133 -126.106,311.937 -110.702,289.694L-55.138,330.941C-55.138,330.941 -82.024,371.322 -125.058,400.517M-270.849,508.475L-201.676,365.624C-190.99,362.373 -183.063,356.907 -183.063,356.907L-107.127,458.716C-183.116,508.859 -270.849,508.475 -270.849,508.475M-348.517,349.703C-396.98,330.657 -435.615,291.569 -454.493,242.5L-593.195,174.632L-454.815,106.922C-436.004,57.318 -397.037,17.808 -348.102,-1.287L-281.824,-136.739L-215.698,-1.596C-166.261,17.429 -126.897,57.255 -108.041,107.31L29.547,174.632L-108.36,242.111C-127.286,291.632 -166.318,331.036 -215.285,350.015L-281.824,486.003L-348.517,349.703ZM-455.594,459.045L-380.415,356.907C-380.415,356.907 -372.567,362.391 -361.987,365.652L-293.167,508.474C-293.167,508.474 -380.362,509.35 -455.594,459.045M-511.258,335.423L-455.761,292.288C-441.077,314.603 -422.692,333.495 -400.297,348.678L-440.99,404.648C-440.99,404.648 -481.636,378.165 -511.258,335.423M-563.585,349.471C-613.526,275.186 -612.483,187.576 -612.483,187.576L-470.869,256.408C-467.632,266.854 -462.188,274.603 -462.188,274.603L-563.585,349.471ZM-563.585,-0.812L-462.727,75.204C-462.727,75.204 -468.171,83.245 -471.408,93.841L-612.475,163.185C-612.475,163.185 -613.526,74.528 -563.585,-0.812M-440.05,-56.915L-397.695,-0.821C-420.212,13.55 -439.36,31.669 -454.854,53.849L-510.25,12.379C-510.25,12.379 -483.201,-27.894 -440.05,-56.915M-293.443,-158.885L-360.877,-17.099C-371.324,-13.862 -379.073,-7.864 -379.073,-7.864L-452.668,-109.965C-378.383,-159.906 -293.443,-158.885 -293.443,-158.885M-109.782,-109.965L-184.015,-7.864C-184.015,-7.864 -191.562,-13.203 -202.009,-16.44L-269.709,-158.887C-269.709,-158.887 -184.068,-159.906 -109.782,-109.965M-54.611,15.091L-110.176,58.137C-124.825,35.799 -143.179,16.877 -165.549,1.659L-124.767,-54.246C-124.767,-54.246 -84.163,-27.698 -54.611,15.091M0.393,-2.329C50.334,73.827 48.876,163.443 48.876,163.443L-91.444,93.644C-94.681,82.935 -100.565,74.39 -100.565,74.39L0.393,-2.329ZM7.645,-36.475L-38.857,-2.247C-38.857,-2.247 -56.093,-30.718 -105.851,-69.836L-72.992,-117.403C-72.992,-117.403 -159.49,-182.009 -281.824,-183.84C-404.127,-185.67 -490.675,-119.218 -490.675,-116.443L-456.681,-70.108C-456.681,-70.108 -503.126,-37.046 -523.987,-2.409L-570.432,-37.046C-570.432,-37.046 -637.957,40.949 -637.957,174.632C-637.957,308.315 -570.692,384.684 -570.692,384.684L-524.669,350.293C-524.669,350.293 -502.726,387.189 -456.547,419.316L-490.525,465.186C-490.525,465.186 -416.173,534.424 -281.824,533.678C-149.218,532.942 -74.456,466.009 -72.322,465.884L-106.343,418.552C-106.343,418.552 -67.581,391.394 -38.943,351.152L6.978,384.975C6.978,384.975 73.654,307.347 74.249,174.632C74.838,43.06 7.645,-34.454 7.645,-36.475" style="fill-rule:nonzero;"/>
                </g>
            </g>
        </g>
    </g>
</svg>
